X: 780
T: Panhandle Country
C:Bill Monroe
B: jims roots
M:4/4
L:1/8
Q: 1/4=100
K:C
V:1 
|:"C"CCCD EGcB | cBcB AGGD | "F"F2FF FGAA | AccB BccA |
 "G"dAcA BAAF | GDFD EDB,G, | "C"C2CD EGAB | [c2E] [ecE][e2c2E2][ecE] [e2c2E2] :|
|:"C"[EC][E2C2][EC] [EC][EC] [E2C2] | "C7"[E2_B,2] [E_B,][E2_B,2][E_B,] [E2_B,2] | "F"[F2A,2] [F2A,2] [F2A,2] [F2A,2] | [F2A,2] [FA,][FA,] [FA,][FA,][FA,][FA,] |
 "G"G,B,B,D DGGg | gdBD DB,A,B, | "C"C2CD EGAB | [c2E] [ecE][e2c2E2][ecE] [e2c2E2] :|
% abcbook-tune_id 6298c2795744cd044b25d383


% abcbook-boost 0
% abcbook-tablature 
% abcbook-transpose 
% abcbook-lastupdated 1654178426394
% abcbook-soundfonts 
% abcbook-repeats 1


